app/public/logos/interlay.svg

<svg xmlns="http://www.w3.org/2000/svg" width="350pt" height="350pt" style="isolation:isolate" viewBox="0 0 350 350"><defs><clipPath id="a"><path d="M0 0h350v350H0z"/></clipPath></defs><g clip-path="url(#a)"><path d="M0 0h350v350H0z" style="fill:#190a2d"/><g fill="#FFF" fill-rule="evenodd"><path d="m303.352 270.117-63.962-39.473c-.726-.462-1.518-.66-2.376-.66H60.048c-2.047 0-3.829 1.321-4.357 3.301s.264 4.026 1.98 5.082l63.962 39.473c.726.462 1.518.66 2.376.66h176.967c2.046 0 3.828-1.32 4.356-3.3.528-1.915-.264-4.027-1.98-5.083m-178.089-.66-49.241-30.364h159.672l49.242 30.364zM112.92 120.016h176.966c2.047 0 3.829-1.321 4.357-3.301s-.264-4.026-1.98-5.082L228.301 72.16c-.726-.462-1.518-.66-2.376-.66H49.024c-2.046 0-3.828 1.32-4.356 3.3-.528 1.981.264 4.027 1.98 5.083l63.962 39.473c.66.396 1.518.66 2.31.66m111.751-39.473 49.241 30.364H114.24L64.998 80.543zM179.588 147.277c-7.459.066-14.39 3.036-19.605 8.383s-8.053 12.343-7.987 19.802c.132 15.248 12.608 27.591 27.856 27.591h.264c15.379-.132 27.723-12.805 27.591-28.119-.066-7.459-3.037-14.39-8.383-19.604-5.215-5.149-12.146-7.987-19.472-7.987-.066-.066-.132-.066-.264-.066"/></g></g></svg>

<?xml version="1.0" encoding="UTF-8" standalone="no"?><!-- Generator: Gravit.io --><svg xmlns="http://www.w3.org/2000/svg" xmlns:xlink="http://www.w3.org/1999/xlink" style="isolation:isolate" viewBox="0 0 350 350" width="350pt" height="350pt"><defs><clipPath id="_clipPath_h9JUKbyDsxPOi5bzk8eQmMy4yR6zgEnk"><rect width="350" height="350"/></clipPath></defs><g clip-path="url(#_clipPath_h9JUKbyDsxPOi5bzk8eQmMy4yR6zgEnk)"><rect width="350" height="350" style="fill:rgb(25,10,45)"/><g><path d=" M 303.352 270.117 L 239.39 230.644 C 238.664 230.182 237.872 229.984 237.014 229.984 L 60.048 229.984 C 58.001 229.984 56.219 231.305 55.691 233.285 C 55.163 235.265 55.955 237.311 57.671 238.367 L 121.633 277.84 C 122.359 278.302 123.151 278.5 124.009 278.5 L 300.976 278.5 C 303.022 278.5 304.804 277.18 305.332 275.2 C 305.86 273.285 305.068 271.173 303.352 270.117 Z  M 125.263 269.457 L 76.022 239.093 L 235.694 239.093 L 284.936 269.457 L 125.263 269.457 Z " fill-rule="evenodd" fill="rgb(255,255,255)"/><path d=" M 112.92 120.016 L 289.886 120.016 C 291.933 120.016 293.715 118.695 294.243 116.715 C 294.771 114.735 293.979 112.689 292.263 111.633 L 228.301 72.16 C 227.575 71.698 226.783 71.5 225.925 71.5 L 49.024 71.5 C 46.978 71.5 45.196 72.82 44.668 74.8 C 44.14 76.781 44.932 78.827 46.648 79.883 L 110.61 119.356 C 111.27 119.752 112.128 120.016 112.92 120.016 Z  M 224.671 80.543 L 273.912 110.907 L 114.24 110.907 L 64.998 80.543 L 224.671 80.543 Z " fill-rule="evenodd" fill="rgb(255,255,255)"/><path d=" M 179.588 147.277 C 172.129 147.343 165.198 150.313 159.983 155.66 C 154.769 161.006 151.93 168.003 151.996 175.462 C 152.128 190.71 164.604 203.053 179.852 203.053 C 179.918 203.053 180.05 203.053 180.116 203.053 C 195.495 202.921 207.839 190.248 207.707 174.934 C 207.641 167.475 204.67 160.544 199.324 155.33 C 194.109 150.181 187.178 147.343 179.852 147.343 C 179.786 147.277 179.72 147.277 179.588 147.277 Z " fill-rule="evenodd" fill="rgb(255,255,255)"/></g></g></svg>
